X: 29
T:Wollaton Park
% Nottingham Music Database
S:Peeping Tom, via EF
M:4/4
K:D
M:4/4
L:1/4
"D"F2 (3"A7"G/2A/2G/2F/2G/2|"D"A"G"d -dB|"D"AF/2A/2 "A7"G/2F/2E/2G/2|\
"D"F"A7"A -AF|"D"DE/2F/2 "A7"G/2F/2E/2D/2|"D"F"G"d -dB|
:|"G"DE/2F/2 "A"G/2A/2B/2c/2||"D"d2 "A"ed/2c/2|"G"Bd -dB|"D"Ad dc/2d/2|
"E7"e/2d/2c/2B/2 "A7"A/2B/2c/2A/2|"D"dA "C"e2|"D"f/2e/2d/2c/2 "G"B2|\
:|"D"D2 D||<end>
<start>
